X:265
T: MIT JAMMERVOLLEN BLICKEN
N: E1406
O: Europa, Mitteleuropa, Deutschland, Hessen, Odenwald; Elsass
R: Staende -, Soldaten - Lied, Invaliden
M: 6/8
L: 1/16
K: G
D2 | G4D2B,2D2G2 | B2A2z6
D2 | D2F2A2d2c2d2 | B6z4
GA | B4B2B2A2G2 | E2c2z6
c2 | B2d2B2A2G2A2 | G4z2
B,2D2G2 | G3FA2D2F2A2 | c6-c4
c2 | B2d2B2A2G2A2 | G6z4

